svgs/sharp-regular/keyboard-left.svg

<svg xmlns="http://www.w3.org/2000/svg" viewBox="0 0 640 512"><!--! Font Awesome Pro 6.6.0 by @fontawesome - https://fontawesome.com License - https://fontawesome.com/license (Commercial License) Copyright 2024 Fonticons, Inc. --><path d="M592 112l0 288-384 0 0-288 384 0zM208 64l-48 0 0 48 0 288 0 48 48 0 384 0 48 0 0-48 0-288 0-48-48 0L208 64zm96 256l0 48 192 0 0-48-192 0zm80-88l-48 0 0 48 48 0 0-48zm-136 0l0 48 48 0 0-48-48 0zm48-80l-48 0 0 48 48 0 0-48zm40 0l0 48 48 0 0-48-48 0zm128 0l-48 0 0 48 48 0 0-48zm40 0l0 48 48 0 0-48-48 0zm48 80l-48 0 0 48 48 0 0-48zm-136 0l0 48 48 0 0-48-48 0zM117.8 209l17-17-33.9-33.9-17 17-64 64-17 17 17 17 64 64 17 17L134.7 320l-17-17-47-47 47-47z"/></svg>

<svg xmlns="http://www.w3.org/2000/svg" viewBox="0 0 640 512"><!--! Font Awesome Pro 6.4.0 by @fontawesome - https://fontawesome.com License - https://fontawesome.com/license (Commercial License) Copyright 2023 Fonticons, Inc. --><path d="M592 112V400H208V112H592zM208 64H160v48V400v48h48H592h48V400 112 64H592 208zm96 256v48H496V320H304zm80-88H336v48h48V232zm-136 0v48h48V232H248zm48-80H248v48h48V152zm40 0v48h48V152H336zm128 0H416v48h48V152zm40 0v48h48V152H504zm48 80H504v48h48V232zm-136 0v48h48V232H416zM117.8 209l17-17-33.9-33.9-17 17-64 64-17 17 17 17 64 64 17 17L134.7 320l-17-17-47-47 47-47z"/></svg>
